static/src/inline-svgs/journalism/football-weekly-container/waveform-mobile.svg

<svg xmlns="http://www.w3.org/2000/svg" width="222" height="20" viewBox="0 0 222 20"><path d="M.469 3.988h2.248v15.78H.469zm3.372.892H6.09v14.89H3.841zm3.373-2.12h2.248v17.01H7.214zm3.372.67h2.249v16.34h-2.249zm3.373-.947h2.248V19.77h-2.248zm3.373.725h2.248V19.77h-2.248zm3.372.724h2.249v15.837h-2.249zm3.373.725h2.248V19.77h-2.248zm3.372.892h2.249v14.22h-2.249zm3.373.781h2.248v13.439h-2.248zm3.373 1.227h2.248V19.77h-2.248zm3.372-.112h2.249v12.324h-2.249zm3.373-2.453h2.248V19.77H40.94zm3.372.613h2.249V19.77h-2.249zm3.373.614h2.248v13.55h-2.248zm3.373.278h2.248v13.272h-2.248zm3.372.112h2.249v13.16H54.43zm3.373.614h2.248V19.77h-2.248zm3.374.613h2.248V19.77h-2.248zm3.372.669h2.249v11.264h-2.249zm3.373.055h2.248v11.21h-2.248zm3.372-.222h2.249V19.77h-2.249zm3.373.612h2.248v10.82h-2.248zm3.373.67h2.248v10.149H78.04zm3.372.447h2.249v9.703h-2.249zm3.373-6.135h2.248v15.837h-2.248zm3.372 1.004h2.249v14.833h-2.249zm3.373.279h2.248V19.77H91.53zm3.373-.502h2.248V19.77h-2.248zm3.372-1.729h2.249v16.785h-2.249zm3.373.502h2.248v16.283h-2.248zm3.372.558h2.249V19.77h-2.249zm3.373.669h2.248V19.77h-2.248zm3.373.725h2.248V19.77h-2.248zm3.372.279h2.249V19.77h-2.249zm3.373-4.015h2.248V19.77h-2.248zm3.373.446h2.249V19.77h-2.249zm3.373-.335h2.248v17.956h-2.248zm3.373.893h2.248V19.77h-2.248zm3.372.613h2.249v16.45h-2.249zm3.373 1.004h2.248V19.77h-2.248zm3.372-.837h2.249v16.283h-2.249zm3.373-1.784h2.248V19.77h-2.248zm3.373-.335h2.248V19.77h-2.248zm3.372.613h2.249v17.789h-2.249zm3.373-1.003h2.248V19.77h-2.248zm3.372.613h2.249v18.18h-2.249zm3.373-.223h2.248V19.77h-2.248zm3.373.781h2.248V19.77h-2.248zm3.372.612h2.249v17.01h-2.249zm3.373 1.005h2.248V19.77h-2.248zm3.373.669h2.248v15.335h-2.248zm3.372 1.45h2.249v13.885h-2.249zm3.373.948h2.248V19.77h-2.248zm3.373-.836h2.249V19.77h-2.249zm3.373-3.626h2.248v17.4h-2.248zm3.373 1.116h2.248v16.283h-2.248zm3.372.893h2.249v15.39h-2.249zm3.373.557h2.248v14.833h-2.248zm3.372.334h2.249v14.5h-2.249zm3.373.224h2.248V19.77h-2.248zm3.373.725h2.248v13.55h-2.248zm3.372-4.294h2.249V19.77h-2.249zm3.373.167h2.248V19.77h-2.248zm3.372.668h2.249v17.01h-2.249zm3.373.726h2.248v16.283h-2.248z" fill="#999"/></svg>

<svg xmlns="http://www.w3.org/2000/svg" width="222" height="20" viewBox="0 0 222 20">
    <g fill="#999" fill-rule="nonzero">
        <path d="M.469 3.988h2.248v15.78H.469zM3.841 4.88H6.09v14.89H3.841zM7.214 2.76h2.248V19.77H7.214zM10.586 3.43h2.249v16.34h-2.249zM13.959 2.483h2.248V19.77h-2.248zM17.332 3.208h2.248V19.77h-2.248zM20.704 3.932h2.249v15.837h-2.249zM24.077 4.657h2.248V19.77h-2.248zM27.449 5.549h2.249v14.22h-2.249zM30.822 6.33h2.248v13.439h-2.248zM34.195 7.557h2.248V19.77h-2.248zM37.567 7.445h2.249v12.324h-2.249zM40.94 4.992h2.248V19.77H40.94zM44.312 5.605h2.249V19.77h-2.249zM47.685 6.219h2.248v13.55h-2.248zM51.058 6.497h2.248v13.272h-2.248zM54.43 6.609h2.249v13.16H54.43zM57.803 7.223h2.248V19.77h-2.248zM61.177 7.836h2.248V19.77h-2.248zM64.549 8.505h2.249v11.264h-2.249zM67.922 8.56h2.248v11.21h-2.248zM71.294 8.338h2.249V19.77h-2.249zM74.667 8.95h2.248v10.82h-2.248zM78.04 9.62h2.248v10.149H78.04zM81.412 10.067h2.249v9.703h-2.249zM84.785 3.932h2.248v15.837h-2.248zM88.157 4.936h2.249v14.833h-2.249zM91.53 5.215h2.248V19.77H91.53zM94.903 4.713h2.248V19.77h-2.248zM98.275 2.984h2.249v16.785h-2.249zM101.648 3.486h2.248v16.283h-2.248zM105.02 4.044h2.249V19.77h-2.249zM108.393 4.713h2.248V19.77h-2.248zM111.766 5.438h2.248V19.77h-2.248zM115.138 5.717h2.249V19.77h-2.249zM118.511 1.702h2.248V19.77h-2.248zM121.884 2.148h2.249V19.77h-2.249zM125.257 1.813h2.248v17.956h-2.248zM128.63 2.706h2.248V19.77h-2.248zM132.002 3.319h2.249v16.45h-2.249zM135.375 4.323h2.248V19.77h-2.248zM138.747 3.486h2.249v16.283h-2.249zM142.12 1.702h2.248V19.77h-2.248zM145.493 1.367h2.248V19.77h-2.248zM148.865 1.98h2.249v17.789h-2.249zM152.238.977h2.248V19.77h-2.248zM155.61 1.59h2.249v18.18h-2.249zM158.983 1.367h2.248V19.77h-2.248zM162.356 2.148h2.248V19.77h-2.248zM165.728 2.76h2.249V19.77h-2.249zM169.101 3.765h2.248V19.77h-2.248zM172.474 4.434h2.248v15.335h-2.248zM175.846 5.884h2.249v13.885h-2.249zM179.219 6.832h2.248V19.77h-2.248zM182.592 5.996h2.249V19.77h-2.249zM185.965 2.37h2.248v17.4h-2.248zM189.338 3.486h2.248v16.283h-2.248zM192.71 4.379h2.249v15.39h-2.249zM196.083 4.936h2.248v14.833h-2.248zM199.455 5.27h2.249v14.5h-2.249zM202.828 5.494h2.248V19.77h-2.248zM206.201 6.219h2.248v13.55h-2.248zM209.573 1.925h2.249V19.77h-2.249zM212.946 2.092h2.248V19.77h-2.248zM216.318 2.76h2.249V19.77h-2.249zM219.691 3.486h2.248v16.283h-2.248z"/>
    </g>
</svg>
